**harmony	**harte	**kern	**silbe	**kern	**silbe	**timestamp	**phrase
*M4/4	*M4/4	*ICvox	*	*ICvox	*	*	*
*	*	*VRlead	*	*VRbacking	*	*	*
*	*	*Hstimme	*	*Nstimme	*	*	*
*G:	*G:	*G:	*	*G:	*	*	*
*	*	*M4/4	*	*M4/4	*	*	*
*	*	*clefG2	*	*clefF4	*	*	*
1r;	1r	r;	.	r;	.	0	.
=1	=1	=1	=1	=1	=1	=1	=1
*>Letter>A2	*>Letter>A2	*>Letter>A2	*>Letter>A2	*>Letter>A2	*>Letter>A2	*>Letter>A2	*>Letter>A2
*>Label>Intro	*>Label>Intro	*>Label>Intro	*>Label>Intro	*>Label>Intro	*>Label>Intro	*>Label>Intro	*>Label>Intro
1N	N	8B-	Bom	8D	Bom	0.279	newline
.	.	16~B-	ch	16r	.	.	.
.	.	[16A	bom	[16C	bom	.	.
.	.	8A]	_	8C]	_	.	.
.	.	[8G	bom	[8BB	bom	.	.
.	.	8G]	_	8BB]	_	.	.
.	.	8r	.	8r	.	.	.
.	.	4r	.	4r	.	.	.
=2	=2	=2	=2	=2	=2	=2	=2
1N	N	8B-	Bom	8D	Bom	3.014	.
.	.	16~B-	ch	16r	.	.	.
.	.	[16A	bom	[16C	bom	.	.
.	.	8A]	_	8C]	_	.	.
.	.	[8G	bom	[8BB	bom	.	.
.	.	8G]	_	8BB]	_	.	.
.	.	8r	.	8r	.	.	.
.	.	4r	.	4r	.	.	.
=3	=3	=3	=3	=3	=3	=3	=3
*>Letter>B	*>Letter>B	*>Letter>B	*>Letter>B	*>Letter>B	*>Letter>B	*>Letter>B	*>Letter>B
*>Label>Verse	*>Label>Verse	*>Label>Verse	*>Label>Verse	*>Label>Verse	*>Label>Verse	*>Label>Verse	*>Label>Verse
1GMm	G:7	1r	.	1r	.	5.75	newline
=4	=4	=4	=4	=4	=4	=4	=4
1GMm	G:7	1r	.	1r	.	8.47	.
=5	=5	=5	=5	=5	=5	=5	=5
1GMm	G:7	1r	.	1r	.	11.19	.
=6	=6	=6	=6	=6	=6	=6	=6
1GMm	G:7	1r	.	1r	.	13.91	.
=7	=7	=7	=7	=7	=7	=7	=7
1GMm	G:7	1r	.	1r	.	16.63	newline
=8	=8	=8	=8	=8	=8	=8	=8
1GMm	G:7	1r	.	1r	.	19.327	.
=9	=9	=9	=9	=9	=9	=9	=9
1GMm	G:7	1r	.	1r	.	22.024	.
=10	=10	=10	=10	=10	=10	=10	=10
1GMm	G:7	1r	.	1r	.	24.721	.
=11	=11	=11	=11	=11	=11	=11	=11
1FMm	F:7	1r	.	1r	.	27.418	newline
=12	=12	=12	=12	=12	=12	=12	=12
1FMm	F:7	1r	.	1r	.	30.113	.
=13	=13	=13	=13	=13	=13	=13	=13
1FMm	F:7	1r	.	1r	.	32.807	.
=14	=14	=14	=14	=14	=14	=14	=14
1FMm	F:7	1r	.	1r	.	35.502	.
=15	=15	=15	=15	=15	=15	=15	=15
1GMm	G:7	1r	.	1r	.	38.196	newline
=16	=16	=16	=16	=16	=16	=16	=16
1GMm	G:7	1r	.	1r	.	40.901	.
=17	=17	=17	=17	=17	=17	=17	=17
1GMm	G:7	1r	.	1r	.	43.606	.
=18	=18	=18	=18	=18	=18	=18	=18
1GMm	G:7	1r	.	1r	.	46.311	.
=19	=19	=19	=19	=19	=19	=19	=19
1GMm	G:7	1r	.	1r	.	48.678	newline
=20	=20	=20	=20	=20	=20	=20	=20
1N	N	1r	.	1r	.	51.788	.
=21	=21	=21	=21	=21	=21	=21	=21
*>Letter>B	*>Letter>B	*>Letter>B	*>Letter>B	*>Letter>B	*>Letter>B	*>Letter>B	*>Letter>B
*>Label>Verse	*>Label>Verse	*>Label>Verse	*>Label>Verse	*>Label>Verse	*>Label>Verse	*>Label>Verse	*>Label>Verse
1GMm	G:7	1r	.	1r	.	54.56	newline
=22	=22	=22	=22	=22	=22	=22	=22
1GMm	G:7	1r	.	1r	.	57.294	.
=23	=23	=23	=23	=23	=23	=23	=23
1GMm	G:7	1r	.	1r	.	60.027	.
=24	=24	=24	=24	=24	=24	=24	=24
1GMm	G:7	1r	.	1r	.	62.761	.
=25	=25	=25	=25	=25	=25	=25	=25
1GMm	G:7	1r	.	1r	.	65.494	newline
=26	=26	=26	=26	=26	=26	=26	=26
1GMm	G:7	1r	.	1r	.	68.236	.
=27	=27	=27	=27	=27	=27	=27	=27
1GMm	G:7	1r	.	1r	.	70.979	.
=28	=28	=28	=28	=28	=28	=28	=28
1GMm	G:7	1r	.	1r	.	73.721	.
=29	=29	=29	=29	=29	=29	=29	=29
1FMm	F:7	1r	.	1r	.	76.463	newline
=30	=30	=30	=30	=30	=30	=30	=30
1FMm	F:7	1r	.	1r	.	79.191	.
=31	=31	=31	=31	=31	=31	=31	=31
1FMm	F:7	1r	.	1r	.	81.919	.
=32	=32	=32	=32	=32	=32	=32	=32
1FMm	F:7	1r	.	1r	.	84.648	.
=33	=33	=33	=33	=33	=33	=33	=33
1GMm	G:7	1r	.	1r	.	87.376	newline
=34	=34	=34	=34	=34	=34	=34	=34
1GMm	G:7	1r	.	1r	.	90.087	.
=35	=35	=35	=35	=35	=35	=35	=35
1GMm	G:7	1r	.	1r	.	92.799	.
=36	=36	=36	=36	=36	=36	=36	=36
1GMm	G:7	1r	.	1r	.	95.51	.
=37	=37	=37	=37	=37	=37	=37	=37
*>Letter>C	*>Letter>C	*>Letter>C	*>Letter>C	*>Letter>C	*>Letter>C	*>Letter>C	*>Letter>C
*>Label>Bridge	*>Label>Bridge	*>Label>Bridge	*>Label>Bridge	*>Label>Bridge	*>Label>Bridge	*>Label>Bridge	*>Label>Bridge
1GMm	G:7	1r	.	1r	.	97.882	newline
=38	=38	=38	=38	=38	=38	=38	=38
1N	N	8B-	Bom	8D	Bom	100.92	.
.	.	16~B-	ch	16r	.	.	.
.	.	[16A	bom	[16C	bom	.	.
.	.	8A]	_	8C]	_	.	.
.	.	[8G	bom	[8BB	bom	.	.
.	.	8G]	_	8BB]	_	.	.
.	.	8r	.	8r	.	.	.
.	.	4r	.	4r	.	.	.
=39	=39	=39	=39	=39	=39	=39	=39
1N	N	8B-	Bom	8D	Bom	103.619	.
.	.	16~B-	ch	16r	.	.	.
.	.	[16A	bom	[16C	bom	.	.
.	.	8A]	_	8C]	_	.	.
.	.	[8G	bom	[8BB	bom	.	.
.	.	8G]	_	8BB]	_	.	.
.	.	8r	.	8r	.	.	.
.	.	4r	.	4r	.	.	.
=40	=40	=40	=40	=40	=40	=40	=40
1N	N	8B-	Bom	8D	Bom	106.318	.
.	.	16~B-	ch	16r	.	.	.
.	.	[16A	bom	[16C	bom	.	.
.	.	8A]	_	8C]	_	.	.
.	.	[8G	bom	[8BB	bom	.	.
.	.	8G]	_	8BB]	_	.	.
.	.	8r	.	8r	.	.	.
.	.	4r	.	4r	.	.	.
=41	=41	=41	=41	=41	=41	=41	=41
1N	N	8B-	Bom	8D	Bom	109.017	newline
.	.	16~B-	ch	16r	.	.	.
.	.	[16A	bom	[16C	bom	.	.
.	.	8A]	_	8C]	_	.	.
.	.	[8G	bom	[8BB	bom	.	.
.	.	8G]	_	8BB]	_	.	.
.	.	8r	.	8r	.	.	.
.	.	4r	.	4r	.	.	.
=42	=42	=42	=42	=42	=42	=42	=42
1N	N	8B-	Bom	8D	Bom	111.687	.
.	.	16~B-	ch	16r	.	.	.
.	.	[16A	bom	[16C	bom	.	.
.	.	8A]	_	8C]	_	.	.
.	.	[8G	bom	[8BB	bom	.	.
.	.	8G]	_	8BB]	_	.	.
.	.	8r	.	8r	.	.	.
.	.	4r	.	4r	.	.	.
=43	=43	=43	=43	=43	=43	=43	=43
1N	N	8B-	Bom	8D	Bom	114.358	.
.	.	16~B-	ch	16r	.	.	.
.	.	[16A	bom	[16C	bom	.	.
.	.	8A]	_	8C]	_	.	.
.	.	[8G	bom	[8BB	bom	.	.
.	.	8G]	_	8BB]	_	.	.
.	.	8r	.	8r	.	.	.
.	.	4r	.	4r	.	.	.
=44	=44	=44	=44	=44	=44	=44	=44
1N	N	8B-	Bom	8D	Bom	117.029	.
.	.	16~B-	ch	16r	.	.	.
.	.	[16A	bom	[16C	bom	.	.
.	.	8A]	_	8C]	_	.	.
.	.	[8G	bom	[8BB	bom	.	.
.	.	8G]	_	8BB]	_	.	.
.	.	8r	.	8r	.	.	.
.	.	4r	.	4r	.	.	.
=45	=45	=45	=45	=45	=45	=45	=45
1FMm	F:7	1r	.	1r	.	119.7	newline
=46	=46	=46	=46	=46	=46	=46	=46
1FMm	F:7	1r	.	1r	.	122.453	.
=47	=47	=47	=47	=47	=47	=47	=47
1FMm	F:7	1r	.	1r	.	125.205	.
=48	=48	=48	=48	=48	=48	=48	=48
1FMm	F:7	1r	.	1r	.	127.958	.
=49	=49	=49	=49	=49	=49	=49	=49
1GMm	G:7	1r	.	1r	.	130.711	newline
=50	=50	=50	=50	=50	=50	=50	=50
1GMm	G:7	1r	.	1r	.	133.438	.
=51	=51	=51	=51	=51	=51	=51	=51
1GMm	G:7	1r	.	1r	.	136.166	.
=52	=52	=52	=52	=52	=52	=52	=52
1GMm	G:7	1r	.	1r	.	138.894	.
=53	=53	=53	=53	=53	=53	=53	=53
1GMm	G:7	1r	.	1r	.	141.281	newline
=54	=54	=54	=54	=54	=54	=54	=54
1N	N	1r	.	1r	.	144.369	.
=55	=55	=55	=55	=55	=55	=55	=55
*>Letter>C	*>Letter>C	*>Letter>C	*>Letter>C	*>Letter>C	*>Letter>C	*>Letter>C	*>Letter>C
*>Label>Outro	*>Label>Outro	*>Label>Outro	*>Label>Outro	*>Label>Outro	*>Label>Outro	*>Label>Outro	*>Label>Outro
1N	N	1r	.	1r	.	146.772	newline
=56	=56	=56	=56	=56	=56	=56	=56
1N	N	1r	.	1r	.	147.116	.
=57	=57	=57	=57	=57	=57	=57	=57
1N	N	1r	.	1r	.	149.813	.
=58	=58	=58	=58	=58	=58	=58	=58
1N	N	1r	.	1r	.	152.51	.
=59	=59	=59	=59	=59	=59	=59	=59
1GMm	G:7	8B-	Bom	8D	Bom	157.904	newline
.	.	16~B-	ch	16r	.	.	.
.	.	[16A	bom	[16C	bom	.	.
.	.	8A]	_	8C]	_	.	.
.	.	[8G	bom	[8BB	bom	.	.
.	.	8G]	_	8BB]	_	.	.
.	.	8r	.	8r	.	.	.
.	.	4r	.	4r	.	.	.
=60	=60	=60	=60	=60	=60	=60	=60
1GMm	G:7	8B-	Bom	8D	Bom	160.595	.
.	.	16~B-	ch	16r	.	.	.
.	.	[16A	bom	[16C	bom	.	.
.	.	8A]	_	8C]	_	.	.
.	.	[8G	bom	[8BB	bom	.	.
.	.	8G]	_	8BB]	_	.	.
.	.	8r	.	8r	.	.	.
.	.	4r	.	4r	.	.	.
=61	=61	=61	=61	=61	=61	=61	=61
1GMm	G:7	8B-	Bom	8D	Bom	163.286	.
.	.	16~B-	ch	16r	.	.	.
.	.	[16A	bom	[16C	bom	.	.
.	.	8A]	_	8C]	_	.	.
.	.	[8G	bom	[8BB	bom	.	.
.	.	8G]	_	8BB]	_	.	.
.	.	8r	.	8r	.	.	.
.	.	4r	.	4r	.	.	.
=62	=62	=62	=62	=62	=62	=62	=62
1GMm	G:7	8B-	Bom	8D	Bom	165.976	.
.	.	16~B-	ch	16r	.	.	.
.	.	[16A	bom	[16C	bom	.	.
.	.	8A]	_	8C]	_	.	.
.	.	[8G	bom	[8BB	bom	.	.
.	.	8G]	_	8BB]	_	.	.
.	.	8r	.	8r	.	.	.
.	.	4r	.	4r	.	.	.
=63	=63	=63	=63	=63	=63	=63	=63
1GMm	G:7	8B-	Bom	8D	Bom	168.667	newline
.	.	16~B-	ch	16r	.	.	.
.	.	[16A	bom	[16C	bom	.	.
.	.	8A]	_	8C]	_	.	.
.	.	[8G	bom	[8BB	bom	.	.
.	.	8G]	_	8BB]	_	.	.
.	.	8r	.	8r	.	.	.
.	.	4r	.	4r	.	.	.
=64	=64	=64	=64	=64	=64	=64	=64
1GMm	G:7	8B-	Bom	8D	Bom	171.4	.
.	.	16~B-	ch	16r	.	.	.
.	.	[16A	bom	[16C	bom	.	.
.	.	8A]	_	8C]	_	.	.
.	.	[8G	bom	[8BB	bom	.	.
.	.	8G]	_	8BB]	_	.	.
.	.	8r	.	8r	.	.	.
.	.	4r	.	4r	.	.	.
=65	=65	=65	=65	=65	=65	=65	=65
1GMm	G:7	8B-	Bom	8D	Bom	174.134	.
.	.	16~B-	ch	16r	.	.	.
.	.	[16A	bom	[16C	bom	.	.
.	.	8A]	_	8C]	_	.	.
.	.	[8G	bom	[8BB	bom	.	.
.	.	8G]	_	8BB]	_	.	.
.	.	8r	.	8r	.	.	.
.	.	4r	.	4r	.	.	.
=66	=66	=66	=66	=66	=66	=66	=66
1GMm	G:7	8B-	Bom	8D	Bom	176.867	.
.	.	16~B-	ch	16r	.	.	.
.	.	[16A	bom	[16C	bom	.	.
.	.	8A]	_	8C]	_	.	.
.	.	[8G	bom	[8BB	bom	.	.
.	.	8G]	_	8BB]	_	.	.
.	.	8r	.	8r	.	.	.
.	.	4r	.	4r	.	.	.
=67	=67	=67	=67	=67	=67	=67	=67
*>Label>>Fadeout	*>Label>>Fadeout	*>Label>>Fadeout	*>Label>>Fadeout	*>Label>>Fadeout	*>Label>>Fadeout	*>Label>>Fadeout	*>Label>>Fadeout
1GMm	G:7	8B-	Bom	8D	Bom	179.6	newline
.	.	16~B-	ch	16r	.	.	.
.	.	[16A	bom	[16C	bom	.	.
.	.	8A]	_	8C]	_	.	.
.	.	[8G	bom	[8BB	bom	.	.
.	.	8G]	_	8BB]	_	.	.
.	.	8r	.	8r	.	.	.
.	.	4r	.	4r	.	.	.
=68	=68	=68	=68	=68	=68	=68	=68
1GMm	G:7	8B-	Bom	8D	Bom	182.458	.
.	.	16~B-	ch	16r	.	.	.
.	.	[16A	bom	[16C	bom	.	.
.	.	8A]	_	8C]	_	.	.
.	.	[8G	bom	[8BB	bom	.	.
.	.	8G]	_	8BB]	_	.	.
.	.	8r	.	8r	.	.	.
.	.	4r	.	4r	.	.	.
=69	=69	=69	=69	=69	=69	=69	=69
1GMm	G:7	8B-	Bom	8D	Bom	185.315	.
.	.	16~B-	ch	16r	.	.	.
.	.	[16A	bom	[16C	bom	.	.
.	.	8A]	_	8C]	_	.	.
.	.	[8G	bom	[8BB	bom	.	.
.	.	8G]	_	8BB]	_	.	.
.	.	8r	.	8r	.	.	.
.	.	4r	.	4r	.	.	.
=70	=70	=70	=70	=70	=70	=70	=70
1GMm	G:7	8B-	Bom	8D	Bom	188.173	.
.	.	16~B-	ch	16r	.	.	.
.	.	[16A	bom	[16C	bom	.	.
.	.	8A]	_	8C]	_	.	.
.	.	[8G	bom	[8BB	bom	.	.
.	.	8G]	_	8BB]	_	.	.
.	.	8r	.	8r	.	.	.
.	.	4r	.	4r	.	.	.
1r;	1r	r;	.	r;	.	191.031	.
*-	*-	*-	*-	*-	*-	*-	*-
!!!BillboardChartDate: 1970/01/31
!!!BillboardPeak: 56
!!!BillboardWeeksOnChart: 10
!!!COC: The Meters
!!!ENC: Nathaniel Condit-Schultz
!!!EST: Awating manual error checking and editing.
!!!OTL: Look-Ka Py Py
!!!RDF**chordsym: original McGill chord annotation + (implied pitch class set, with bass pitch in first position)
!!!RDF**harmony: **recip + pitch class of root + harmonic quality
!!!RDF**leadinstrument: original McGill primary instrumentation annotation
!!!RDF**phrase: newline = linebreak in original McGill transcription
!!!RDF**timestamp: McGill audio timestamp in seconds
!!!RDT: 2017/01/12/
!!!SampleActualRank: 56
!!!SampleID#: 1096
!!!SampleTargetRank: 56
!!!MBID: 501c79f9-eb6d-4635-bb7e-45ec8f66207c